X: 1
T: Fjellv\aak vals
T: Mountain Bird
R: waltz
C: Olav Luksengard Mjelva
Z: John Watson
S: http://tradtunedb.org.uk:8080/musicrest/genre/scandi/tune/fjellv%C3%A5k-waltz
M: 3/4
L: 1/8
K: D
|: F2-FA cd | c4 A2 | F2 A2 cd | c4 cd | e2-ed BA | G4    E2  |  F2-FG FD | E6 |
|  F2-FA cd | c4 A2 | F2 A2 cd | c4 d2 | B2-BA G2 | FE D2 C2  |1 D6- | D6 :|2 D6- | D4 A,2 | 
|: B,4 C2   | D4 E2 | F2-FG FD | E4 EF | G4    G2 | F2-FE D2  |  E6  | A,4 A,2 |
|  B,4 C2   | D4 E2 | F2-FG FD | E4 EF | GB FA EG | FE DC B,C |1 D6- | D4 A,2 :|2 D6- | D6 |
